X: 0931
M: 4/4
L: 1/8
K: F
c2A>c f2c>f | a6 g>a | b>ag>f g>fe>d | (c4 A2)d>c |\
(c2>>B2) G2d>c | (c2>>A2) F2f>e | d2d>e f>ef>g | c6 :|
|: c2 |\
d2d>d d>cd>e | (f4 c2)d>c | B>AB>c d>ef>g | (a4 f2)c>c |\
d2d>d d>cd>e | (f4 c2)f>e | d>cd>e f>ca>g | f6 H:|
K: Bb
|: F2 |\

